src/pos-icons/database-refresh.svg

<svg height="24" viewBox="0 0 24 24" width="24" xmlns="http://www.w3.org/2000/svg"><path d="m12 3c4.42 0 8 1.79 8 4s-3.58 4-8 4-8-1.79-8-4 3.58-4 8-4m-8 6c0 2.21 3.58 4 8 4 1.11 0 2.18-.11 3.14-.32-.95.86-1.64 1.99-1.96 3.28l-1.18.04c-4.42 0-8-1.79-8-4zm16 0v2h-.5l-.6.03c.7-.6 1.1-1.29 1.1-2.03m-16 5c0 2.21 3.58 4 8 4l1-.03c.09 1.06.42 2.03.95 2.91l-1.95.12c-4.42 0-8-1.79-8-4zm15-.5c1.11 0 2.11.45 2.83 1.17l1.17-1.17v4h-4l1.77-1.77c-.45-.45-1.08-.73-1.77-.73-1.38 0-2.5 1.12-2.5 2.5s1.12 2.5 2.5 2.5c.82 0 1.54-.39 2-1h1.71c-.59 1.47-2.03 2.5-3.71 2.5-2.21 0-4-1.79-4-4s1.79-4 4-4z"/></svg>

<?xml version="1.0" encoding="UTF-8"?><!DOCTYPE svg PUBLIC "-//W3C//DTD SVG 1.1//EN" "http://www.w3.org/Graphics/SVG/1.1/DTD/svg11.dtd"><svg xmlns="http://www.w3.org/2000/svg" xmlns:xlink="http://www.w3.org/1999/xlink" version="1.1" id="mdi-database-refresh" width="24" height="24" viewBox="0 0 24 24"><path d="M12 3C16.42 3 20 4.79 20 7C20 9.21 16.42 11 12 11C7.58 11 4 9.21 4 7C4 4.79 7.58 3 12 3M4 9C4 11.21 7.58 13 12 13C13.11 13 14.18 12.89 15.14 12.68C14.19 13.54 13.5 14.67 13.18 15.96L12 16C7.58 16 4 14.21 4 12V9M20 9V11L19.5 11L18.9 11.03C19.6 10.43 20 9.74 20 9M4 14C4 16.21 7.58 18 12 18L13 17.97C13.09 19.03 13.42 20 13.95 20.88L12 21C7.58 21 4 19.21 4 17V14M19 13.5C20.11 13.5 21.11 13.95 21.83 14.67L23 13.5V17.5H19L20.77 15.73C20.32 15.28 19.69 15 19 15C17.62 15 16.5 16.12 16.5 17.5C16.5 18.88 17.62 20 19 20C19.82 20 20.54 19.61 21 19H22.71C22.12 20.47 20.68 21.5 19 21.5C16.79 21.5 15 19.71 15 17.5C15 15.29 16.79 13.5 19 13.5Z" /></svg>
